X: 47
T: No_143_Dream_Song.krn
%%abc-version 2.0
%%abcx-abcm2ps-target-version 5.9.1 (29 Sep 2008)
%%abc-creator hum2abc beta
%%abcx-conversion-date 2020/08/10 18:54:57
%%gracespace 0 6 6
%%humdrum-veritas 542929457
%%humdrum-veritas-data 832947242
%%linebreak <none>
%%barnumbers 0
L: 1/4
M: 4/4
%%staves {1 2}
V: 1 clef=bass
V: 2 clef=bass
K: G
[V:1] DD [I:setbarnb 1]| 
[V:2] G,,/G,,/ G,,/G,,/ | 
[V:1] D2DD | 
[V:2] G,,/G,,/G,,/G,,/ G,,/G,,/G,,/G,,/ | 
[V:1] D2D2 | 
[V:2] z4 | 
[V:1] DDDD ||  
[V:2] z4 ||  
[V:1] [M:3/4]B,DD ||  
[V:2] [M:3/4]z3 ||  
[V:1] [M:4/4]D2B,B, | 
[V:2] [M:4/4]z4 | 
[V:1] G,2G,2 | 
[V:2] z4 | 
[V:1] G,G,G,G, | 
[V:2] z4 | 
[V:1] !fermata!G,2DB, | 
[V:2] z4 | 
[V:1] D2B,B, | 
[V:2] z4 | 
[V:1] G,2G,2 | 
[V:2] z4 | 
[V:1] G,G,G,G, ||  
[V:2] z4 ||  
[V:1] [M:3/4]E,G,G, ||  
[V:2] [M:3/4]z3 ||  
[V:1] [M:4/4]G,2D,D, | 
[V:2] [M:4/4]z4 | 
[V:1] D,2D,2 | 
[V:2] z4 | 
[V:1] D,D,D,D, ||  
[V:2] z4 ||  
[V:1] [M:3/4]D,G,G, ||  
[V:2] [M:3/4]z3 ||  
[V:1] [M:4/4]G,2D,D, | 
[V:2] [M:4/4]z4 | 
[V:1] D,2D,2 | 
[V:2] z4 | 
[V:1] D,D,D,D, ||  
[V:2] z4 ||  
[V:1] [M:3/4]B,,D,D, ||  
[V:2] [M:3/4]z3 ||  
[V:1] [M:4/4]D,2B,,B,, | 
[V:2] [M:4/4]z4 | 
[V:1] G,,2G,,2 | 
[V:2] z4 | 
[V:1] G,,2z2 |]  
[V:2] z4 |]  


